src/view/frontend/web/svg/heroicons/solid/folder-open.svg

<svg viewBox="0 0 20 20" fill="currentColor" xmlns="http://www.w3.org/2000/svg">
<path fill-rule="evenodd" clip-rule="evenodd" d="M2 6C2 4.89543 2.89543 4 4 4H8L10 6H14C15.1046 6 16 6.89543 16 8V9H8C6.34315 9 5 10.3431 5 12V13.5C5 14.3284 4.32843 15 3.5 15C2.67157 15 2 14.3284 2 13.5V6Z" />
<path d="M6 12C6 10.8954 6.89543 10 8 10H16C17.1046 10 18 10.8954 18 12V14C18 15.1046 17.1046 16 16 16H2H4C5.10457 16 6 15.1046 6 14V12Z" />
</svg>

<svg xmlns="http://www.w3.org/2000/svg" viewBox="0 0 20 20" fill="currentColor">
  <path fill-rule="evenodd" d="M2 6a2 2 0 012-2h4l2 2h4a2 2 0 012 2v1H8a3 3 0 00-3 3v1.5a1.5 1.5 0 01-3 0V6z" clip-rule="evenodd"/>
  <path d="M6 12a2 2 0 012-2h8a2 2 0 012 2v2a2 2 0 01-2 2H2h2a2 2 0 002-2v-2z"/>
</svg>
